symbols/web/light/materialsymbolsrounded/light_wght100gradN25fill1_40px.svg

<svg xmlns="http://www.w3.org/2000/svg" height="40" width="40"><path d="M20 30.75q-1.917 0-3.229-1.312-1.313-1.313-1.313-3.23h-7.25q-.375 0-.687-.291-.313-.292-.313-.667 0-5.083 3.563-8.917 3.562-3.833 8.771-4V8.542q0-.209.125-.334.125-.125.333-.125.25 0 .375.125t.125.334v3.791q5.167.125 8.729 3.979 3.563 3.855 3.563 8.938 0 .375-.313.667-.312.291-.687.291h-7.25q0 1.917-1.313 3.23Q21.917 30.75 20 30.75Zm-11.792-5.5h23.584q0-5-3.438-8.479-3.437-3.479-8.354-3.479t-8.354 3.5q-3.438 3.5-3.438 8.458Z"/></svg>

<svg xmlns="http://www.w3.org/2000/svg" height="40" width="40"><path d="M20 30.75Q18.083 30.75 16.771 29.438Q15.458 28.125 15.458 26.208H8.208Q7.833 26.208 7.521 25.917Q7.208 25.625 7.208 25.25Q7.208 20.167 10.771 16.333Q14.333 12.5 19.542 12.333V8.542Q19.542 8.333 19.667 8.208Q19.792 8.083 20 8.083Q20.25 8.083 20.375 8.208Q20.5 8.333 20.5 8.542V12.333Q25.667 12.458 29.229 16.312Q32.792 20.167 32.792 25.25Q32.792 25.625 32.479 25.917Q32.167 26.208 31.792 26.208H24.542Q24.542 28.125 23.229 29.438Q21.917 30.75 20 30.75ZM8.208 25.25H31.792Q31.792 20.25 28.354 16.771Q24.917 13.292 20 13.292Q15.083 13.292 11.646 16.792Q8.208 20.292 8.208 25.25ZM20 29.792Q21.5 29.792 22.542 28.729Q23.583 27.667 23.583 26.208H16.417Q16.417 27.708 17.458 28.75Q18.5 29.792 20 29.792ZM20 29.583Q18.625 29.583 17.625 28.583Q16.625 27.583 16.625 26.208H23.375Q23.375 27.583 22.375 28.583Q21.375 29.583 20 29.583Z"/></svg>
